X:1
T:Title
%%score { ( 1 3 ) | 2 }
L:1/8
M:4/4
K:D
V:1 treble nm="Grand Piano"
V:3 treble 
V:2 bass 
V:1
 z4 z2[Q:1/4=100] [DF]>[EG] | [FA]2 [FA]2 [GB]2 [FA]2 | [DFA]2 [CEG]2 [CEG]2 [CE]>[DF] | %3
 [EG]2 [DF]2 [EG]2 [CGB]2 | [GB]2 [FA]2 [FA]2 [DF]>[EG] | [FA]2 [FA]2 [Fd]2 [FA]2 | %6
 [Ac]2 B2 B2 d>B | A3 F [DF]2 [CE]2 |[M:3/4] D6 |[M:1/4] F>[EG] |[M:4/4] [FA]2 [FA]2 [Fd]2 [DF]2 | %11
 [CE]6 z2 | [EG]2 [CE]2 [EG]2 [Ec]2 | [Ac]6[K:bass][K:treble] z2 | [DA]2 [Fd]2 [Ad]2 [FA]>F | %15
 G2 B2 B2 d>B | A3 F [DF]2 [CE]2 |[M:3/4] D6 |] %18
V:2
 z4 z2 [D,A,]>[D,A,] | [D,D]2 [D,D]2 [D,D]2 [D,D]2 | A,,2 A,,2 A,,2 [A,,A,]>[A,,A,] | %3
 [A,,A,]2 [A,,A,]2 [A,,A,]2 A,,2 | [D,D]2 [D,D]2 [D,D]2 [D,A,]>[D,A,] | %5
 [D,D]2 [D,D]2 [D,D]2 [D,D]2 | [G,D]2 [G,DG]2 [G,DG]2 [G,B,G]>[G,DG] | %7
 [A,DF]3[K:bass] [A,D] [A,,A,]2 [A,,G,]2 |[M:3/4] [D,F,]6 |[M:1/4] [D,A,D]>[D,A,] | %10
[M:4/4] [D,D]2 [D,D]2 [D,A,]2 [D,A,]2 | [A,,A,]2 A,,2 A,,2 [A,,A,]>[A,,A,] | %12
 [A,,A,]2 [A,,A,]2 [A,,A,]2 [A,,A,]2 | [A,,E,]2 A,,2 A,,2 [A,,G,]2 | %14
 [D,F,]2 [D,A,]2 [F,A,]2 [D,A,]>[E,A,D] | [G,B,D]2 [G,D]2 [G,D]2 [G,B,G]>[G,DG] | %16
 [A,DF]3[K:bass] [A,D] [A,,A,]2 [A,,G,]2 |[M:3/4] [D,F,]6 |] %18
V:3
 x8 | x8 | x8 | x8 | x8 | x8 | x8 | x8 |[M:3/4] x6 |[M:1/4] x2 |[M:4/4] x8 | z2 A,2 A,2 [CE]>[DF] | %12
 x8 | z2[K:bass] F,2 G,2[K:treble] [Ec][DB] | x8 | x8 | x8 |[M:3/4] x6 |] %18

